X:56
T:Cooper’s Hornpipe. JBu.56
T:Swan’s Hornpipe,aka. JBu.56
T:Exiseman’s Hornpipe,aka. JBu.56, The
T:Fox in the Dumps,aka. JBu.56, The
O:England,South Yorkshire
S:Joshua Burnett’s MS,c1835,S.Yorkshire
M:4/4
L:1/8
Q:1/2=90
R:.hornpipe
Z:vmp.R.Greig.2011
K:D
AG|FA d2d2cB|cde2e2dc|(de)fd (gf)ed|ecA2ABAG|
FAd2d2cB|cde2e2ag|(fd)ec (dA)BG|F2D2D2:|
|:AB/c/|(dA)FA (DF)Ad|(ed)cB (Ac)eg|(fd)BF (DF)Ad|edcB A2A2|
(BG)Bd (gf)ed|cAce d2A2|(BG)AF (GE)AG|F2D2D2:|

